X:1
T:James Gibb editions
T:Sing alleluia forth in duteous praise - Barnby
T:#
%%score [ ( 1 2 3 ) ( 4 5 ) ]
L:1/8
Q:1/4=178
M:8/4
K:D
V:1 treble nm="Midi_74"
V:2 treble 
V:3 treble 
V:4 bass nm="Midi_74"
V:5 bass 
V:1
!f!"^John Ellerton\n(1826-93)""^Sing alleluia forth in duteous praise""^Joseph Barnby\n(1838-96)""^10 10. 7""^Full" F16 | %1
w: 1.~Sing~alleluia~forth~in|
w: 2.~Ye~next,~who~stand~before~th'E-|
 G4 B4 A8 ||"^cresc.""^cresc." A16 | B4 d4 c4!ff! A4 | d6 c2 B4 A4 | G8 F8 |]!f! F16 | G4 B4 A8 || %8
w: du- teous praise,|O~citizens~of~heaven;~in|sweet notes raise An|end- less Al- le-|lu- ia.|Dec.~3.~The~Holy~City~shall~take|up your strain,~|
w: ter- nal Light|In~hymning~choirs~re\-echo|to the height An|end- less Al- le-|lu- ia.|Can.~4.~In~blissful~antiphons~ye|thus re- joice|
"^cresc." A16 | B4 d4 c4!ff! A4 | d6 c2 B4 A4 | G8 F8 |][K:G]!mf!!mf! B16 | c4 d4 B8 || %14
w: And~with~glad~songs~resounding|wake a- gain An|end- less Al- le-|lu- ia.|Dec,~5.~Ye~~who~~have~gained~at~length~your|palms in bliss,|
w: To~render~to~the~Lord~with|thank- ful voice An|end- less Al- le-|lu- ia.|Can.~6.~From~those~exaltted~lips~for|e- ver ring|
 !fermata!B16 | ^c4 d4 B4!f! d4 | d6 d2 !courtesy!=c4 B4 | A8 G8 |]!p! G16 | A4 B4 G8 | %20
w: Victorious~ones,~your~chant~shall|still be this, An|end- less Al- le-|lu- ia.|Dec.~7.~This~is~the~rest~for~weary|ones brought back;|
w: The~strains~which~tell~the~honour|of your King, An|end- less Al- le-|lu- ia.|||
"^cresc." B16 | ^c4 d4 B4!mf!!mf! d4 | d6 d2 !courtesy!=c4 B4 | A8 B8 |][K:D]"^Org."!ff! d16 | %25
w: This~is~the~food~and~drink~which|none shall lack, An|end- less Al- le-|lu- ia.|Full~8.~While~Thee,~Creator~of~the|
w: ||||Full~9.~To~Thee,~Eternal~Son,~our|
 d4 d4 d8 || d16 | c4 c4"^rall." c4 c4 | d6 F2 A4 G4 | E8 D8 | D16 |"^i" D16 |] %32
w: world, we praise|For~ever,~and~tell~out~in|sweet- est lays An|end- less Al- le-|lu- ia;|||
w: voi- ces sing;|With~Them~toThee,~O~Holy|Ghost, we bring, An|end- less Al- le-|lu- ia.|A-|men.|
V:2
 D16 | D4 D4 E8 || D16 | F4 E4 E4 E4 | D4 D4 D4 D4 | D8 D8 |] D16 | D4 D4 E8 || D16 | F4 E4 E4 E4 | %10
 D4 D4 D4 D4 | D8 D8 |][K:G] G16 | A4 A4 G8 || F16 | E4 E4 D4 F4 | G6 F2 E4 D4 | (E4 F4) G8 |] %18
 E16 | F4 F4 E8 | E16 | E4 E4 D4 F4 | G6 F2 E4 D4 | (E4 F4) G8 |][K:D] F16 | A4 G4 F8 || F16 | %27
 ^A4 ^G4 F4 =G4 | F6 .D2 =C4 B,4 | (B,4 C4) D8 | B,16 | A,16 |] %32
V:3
 x16 | x16 || x16 | x16 | x16 | x16 |] x16 | x16 || x16 | x16 | x16 | x16 |][K:G] x16 | x16 || %14
 x16 | x16 | x16 | x16 |] x16 | x16 | x16 | x16 | x16 | x16 |][K:D] D16 | D4 D4 D8 || D16 | %27
 [C^E]4 [CE]4 C4 C4 | D6 F,2 A,4 G,4 | x16 | x16 | x16 |] %32
V:4
!f! A,16 | G,4 G,4 G,8 || F,16 | A,4 ^G,4 A,4!ff! C4 | D4 F,4 G,4 !courtesy!^C4 | B,8 A,8 |] %6
!f! A,16 | G,4 G,4 G,8 ||"^cresc." F,16 | A,4 ^G,4 A,4!ff! C4 | D4 F,4 G,4 !courtesy!^C4 | %11
 B,8 A,8 |][K:G] D16 | E4 D4 D8 ||"^cresc." B,16 | B,4 ^A,4 B,4!f! !courtesy!=C4 | B,6 B,2 C4 D4 | %17
 C8 B,8 |]!p! B,16 | C4 B,4 B,8 |"^cresc." B,16 | B,4 ^A,4 B,4 !courtesy!=C4 | B,6 B,2 C4 D4 | %23
 C8 B,8 |][K:D]!ff! A,16 | C4 B,4 A,8 || B,16 | B,4 B,4 ^A,4"^rall." =A,4 | A,4 D,4 ^D,4 E,4 | %29
 G,8 F,8 | G,16 | F,16 |] %32
V:5
 D,16 | B,,4 G,,4 C,8 || D,16 | D,4 E,4 A,4 !courtesy!=G,4 | F,4 D,4 D,4 D,4 | G,,8 D,8 |] D,16 | %7
 B,,4 G,,4 C,8 || D,16 | D,4 E,4 A,4 !courtesy!=G,4 | F,4 D,4 D,4 D,4 | G,,8 D,8 |][K:G] G,16 | %13
 G,4 F,4 G,8 || D,16 | G,4 F,4 B,4 !courtesy!=A,4 | G,6 G,2 G,4 G,4 | D,8 G,,8 |] E,16 | %19
 E,4 ^D,4 E,8 | G,16 | F,4 F,4 B,4 !courtesy!=A,4 | G,6 G,2 G,4 G,4 | D,8 G,,8 |][K:D] D,16 | %25
 G,,4 G,,4 D,8 || B,,16 | C,4 C,4 F,4 E,4 | D,4 B,,4 F,,4 G,,4 | A,,8 D,8 | G,,16 | [D,,D,]16 |] %32

